X:92
T:The Railway
M:6/8
L:1/8
K:G
B | "G"G2G GBd | g2d d2d | "Am"e2d c2B | "D"ABG FED |
"G"G2G GBd | g2d d2d | "C"edc "G"BAG | "D7"A3 "G"G2 :| 
|: d | "G"b2b b2a | g2g g2d | "C"e2d efg | "D"a2g fed |
"G"b2b b2a | g2g g2d | "C"efg "D"agf | "G"g3- g2 :|]

%%newpage

